source/images/icons/icon-editorial/autobus.svg

<?xml version="1.0" encoding="UTF-8"?>
<svg width="80px" height="80px" viewBox="0 0 80 80" version="1.1" xmlns="http://www.w3.org/2000/svg" xmlns:xlink="http://www.w3.org/1999/xlink">
    <!-- Generator: Sketch 55.2 (78181) - https://sketchapp.com -->
    <title>Illustrative Icons/Autobus</title>
    <desc>Created with Sketch.</desc>
    <g id="Illustrative-Icons/Autobus" stroke="none" stroke-width="1" fill="none" fill-rule="evenodd">
        <path d="M15.3333333,38.3333334 C14.4128588,38.3333334 13.6666667,39.0795255 13.6666667,40 C13.6666667,40.9204746 14.4128588,41.6666667 15.3333333,41.6666667 L70.3333334,41.6666667 L70.3333334,58.3333334 C70.3333334,59.253808 69.5871413,60 68.6666667,60 L12,60 C11.0795254,60 10.3333333,59.253808 10.3333333,58.3333334 L10.3333333,40.11 L13.6466667,15.26 C14,13.3333333 14.9016667,13.3333333 15.3333333,13.3333333 L65.3333334,13.3333333 C65.7650001,13.3333333 66.6666667,13.3333333 67.0183334,15.2533333 L68.6850001,28.54 C68.7991389,29.453571 69.6322624,30.1016389 70.5458334,29.9875 C71.4594044,29.8733612 72.1074723,29.0402377 71.9933334,28.1266667 L70.3266667,14.7933333 L70.3133334,14.705 C69.7683334,11.715 67.9550001,10 65.3333334,10 L15.3333333,10 C12.7116667,10 10.8983333,11.715 10.36,14.705 L7,39.89 L7,58.3333334 C7,61.0947571 9.23857625,63.3333334 12,63.3333334 L13.6666667,63.3333334 L13.6666667,68.3333334 C13.6666667,71.0947572 15.9052429,73.3333334 18.6666667,73.3333334 C21.4280904,73.3333334 23.6666667,71.0947572 23.6666667,68.3333334 L23.6666667,63.3333334 L57,63.3333334 L57,68.3333334 C57,71.0947572 59.2385763,73.3333334 62,73.3333334 C64.7614238,73.3333334 67,71.0947572 67,68.3333334 L67,63.3333334 L68.6666667,63.3333334 C71.4280905,63.3333334 73.6666667,61.0947571 73.6666667,58.3333334 L73.6666667,38.3333334 L15.3333333,38.3333334 Z M20.3333333,68.3333334 C20.3333333,69.253808 19.5871413,70.0000001 18.6666667,70.0000001 C17.7461921,70.0000001 17,69.253808 17,68.3333334 L17,63.3333334 L20.3333333,63.3333334 L20.3333333,68.3333334 Z M63.6666667,68.3333334 C63.6666667,69.253808 62.9204747,70.0000001 62.0000001,70.0000001 C61.0795255,70.0000001 60.3333334,69.253808 60.3333334,68.3333334 L60.3333334,63.3333334 L63.6666667,63.3333334 L63.6666667,68.3333334 Z M33.6666667,16.6666667 C32.7461921,16.6666667 32,17.4128588 32,18.3333333 C32,19.2538079 32.7461921,20 33.6666667,20 L47,20 C47.9204746,20 48.6666667,19.2538079 48.6666667,18.3333333 C48.6666667,17.4128588 47.9204746,16.6666667 47,16.6666667 L33.6666667,16.6666667 Z M62.0000001,50 C62.0000001,47.2385763 59.7614238,45 57.0000001,45 C54.2385763,45 52.0000001,47.2385763 52.0000001,50 C52.0000001,52.7614238 54.2385763,55 57.0000001,55 C59.7614238,55 62.0000001,52.7614238 62.0000001,50 Z M55.3333334,50 C55.3333334,49.0795255 56.0795255,48.3333334 57.0000001,48.3333334 C57.9204746,48.3333334 58.6666667,49.0795255 58.6666667,50 C58.6666667,50.9204746 57.9204746,51.6666667 57.0000001,51.6666667 C56.0795255,51.6666667 55.3333334,50.9204746 55.3333334,50 Z M28.6666667,50 C28.6666667,47.2385763 26.4280904,45 23.6666667,45 C20.9052429,45 18.6666667,47.2385763 18.6666667,50 C18.6666667,52.7614238 20.9052429,55 23.6666667,55 C26.4280904,55 28.6666667,52.7614238 28.6666667,50 Z M22,50 C22,49.0795255 22.7461921,48.3333334 23.6666667,48.3333334 C24.5871413,48.3333334 25.3333334,49.0795255 25.3333334,50 C25.3333334,50.9204746 24.5871413,51.6666667 23.6666667,51.6666667 C22.7461921,51.6666667 22,50.9204746 22,50 Z M71.0983334,35 C72.018808,35 72.7650001,34.2538079 72.7650001,33.3333334 C72.7650001,32.4128588 72.018808,31.6666667 71.0983334,31.6666667 C70.1778588,31.6666667 69.4316667,32.4128588 69.4316667,33.3333334 C69.4316667,34.2538079 70.1778588,35 71.0983334,35 Z" id="Shape-color" fill="#ADB5BD"></path>
    </g>
</svg>

<svg width="80" height="80">
    <title>
        Illustrative Icons/Autobus
    </title>
    <path d="M15.333 38.333a1.667 1.667 0 0 0 0 3.334h55v16.666c0 .92-.746 1.667-1.666 1.667H12c-.92 0-1.667-.746-1.667-1.667V40.11l3.314-24.85c.353-1.927 1.255-1.927 1.686-1.927h50c.432 0 1.334 0 1.685 1.92l1.667 13.287a1.667 1.667 0 1 0 3.308-.413l-1.666-13.334-.014-.088c-.545-2.99-2.358-4.705-4.98-4.705h-50c-2.621 0-4.435 1.715-4.973 4.705L7 39.89v18.443a5 5 0 0 0 5 5h1.667v5a5 5 0 1 0 10 0v-5H57v5a5 5 0 1 0 10 0v-5h1.667a5 5 0 0 0 5-5v-20H15.333zm5 30a1.667 1.667 0 1 1-3.333 0v-5h3.333v5zm43.334 0a1.667 1.667 0 1 1-3.334 0v-5h3.334v5zm-30-51.666a1.667 1.667 0 1 0 0 3.333H47a1.667 1.667 0 0 0 0-3.333H33.667zM62 50a5 5 0 1 0-10 0 5 5 0 0 0 10 0zm-6.667 0a1.667 1.667 0 1 1 3.334 0 1.667 1.667 0 0 1-3.334 0zm-26.666 0a5 5 0 1 0-10 0 5 5 0 0 0 10 0zM22 50a1.667 1.667 0 1 1 3.333 0A1.667 1.667 0 0 1 22 50zm49.098-15a1.667 1.667 0 1 0 0-3.333 1.667 1.667 0 0 0 0 3.333z" fill="#ADB5BD" fill-rule="evenodd"/>
</svg>
